svg/color/cfresh.svg

<?xml version="1.0" encoding="UTF-8" ?>
<!DOCTYPE svg PUBLIC "-//W3C//DTD SVG 1.1//EN" "http://www.w3.org/Graphics/SVG/1.1/DTD/svg11.dtd">
<svg width="250pt" height="250pt" viewBox="0 0 250 250" version="1.1" xmlns="http://www.w3.org/2000/svg">
<g id="#010100ff">
<path fill="#010100" opacity="1.00" d=" M 0.00 0.00 L 250.00 0.00 L 250.00 250.00 L 0.00 250.00 L 0.00 0.00 M 43.60 43.60 C 26.11 61.13 14.71 84.55 11.61 109.12 C 11.19 116.07 9.94 123.05 11.10 130.00 C 12.47 162.34 28.85 193.70 54.61 213.30 C 60.41 217.75 66.42 222.34 73.57 224.31 C 73.72 216.52 73.60 208.73 73.67 200.94 C 73.52 199.16 74.05 196.95 72.34 195.77 C 64.16 188.56 55.86 181.18 50.03 171.85 C 41.09 158.27 36.34 142.20 35.60 126.01 C 35.01 104.99 42.49 83.94 55.66 67.60 C 65.63 56.08 78.15 46.42 92.55 41.19 C 92.91 48.87 92.57 56.55 92.79 64.23 C 86.31 68.44 79.91 72.94 74.61 78.61 C 63.98 90.77 56.85 106.63 57.48 123.00 C 56.91 147.05 70.55 171.09 92.02 182.19 C 103.95 188.82 117.78 191.54 131.36 190.66 C 131.51 206.03 131.36 221.40 131.45 236.77 C 153.21 236.10 174.58 228.10 191.97 215.09 C 213.25 199.90 228.62 176.85 235.04 151.55 C 240.50 131.44 239.59 109.80 233.35 89.97 C 224.40 60.80 203.36 35.19 175.68 22.03 C 175.61 30.69 175.59 39.36 175.65 48.02 C 175.21 52.33 180.21 53.78 182.73 56.31 C 202.30 72.81 214.23 98.33 213.65 123.99 C 214.06 142.32 207.69 160.40 197.23 175.32 C 186.88 189.30 172.77 200.53 156.50 206.82 C 156.44 198.72 156.39 190.63 156.55 182.54 C 169.42 175.85 180.11 164.76 186.02 151.49 C 176.26 151.59 166.40 150.90 156.70 151.79 C 151.98 155.36 147.76 159.74 142.22 162.11 C 134.32 166.31 125.08 166.21 116.43 165.23 C 102.95 162.41 91.21 152.55 85.83 139.91 C 80.83 128.71 81.31 115.18 87.20 104.41 C 92.09 95.15 100.40 87.81 110.14 83.98 C 123.05 79.27 138.35 81.16 149.38 89.49 C 152.80 91.84 155.18 96.75 159.91 96.30 C 168.55 96.29 177.19 96.28 185.83 96.21 C 181.17 85.41 173.33 75.92 163.64 69.25 C 150.70 59.76 134.31 55.76 118.41 56.59 C 118.33 41.19 118.67 25.77 118.20 10.38 C 90.30 11.51 63.18 23.74 43.60 43.60 M 131.70 10.29 C 131.21 17.87 131.41 25.47 131.47 33.05 C 131.08 35.17 133.61 35.20 135.00 35.41 C 146.41 36.62 157.56 40.17 167.48 45.95 C 167.63 36.73 167.48 27.49 167.56 18.27 C 156.04 14.01 144.02 10.87 131.70 10.29 M 82.12 202.05 C 81.48 206.67 81.71 211.35 81.67 216.00 C 81.70 220.46 81.41 224.98 82.38 229.38 C 94.02 233.28 106.05 237.01 118.47 236.74 C 118.17 228.75 118.79 220.74 118.20 212.77 C 114.96 211.20 111.23 211.64 107.80 210.85 C 98.76 209.51 90.41 205.69 82.12 202.05 Z" />
</g>
<g id="#03de92ff">
<path fill="#03de92" opacity="1.00" d=" M 43.60 43.60 C 63.18 23.74 90.30 11.51 118.20 10.38 C 118.67 25.77 118.33 41.19 118.41 56.59 C 134.31 55.76 150.70 59.76 163.64 69.25 C 173.33 75.92 181.17 85.41 185.83 96.21 C 177.19 96.28 168.55 96.29 159.91 96.30 C 155.18 96.75 152.80 91.84 149.38 89.49 C 138.35 81.16 123.05 79.27 110.14 83.98 C 100.40 87.81 92.09 95.15 87.20 104.41 C 81.31 115.18 80.83 128.71 85.83 139.91 C 91.21 152.55 102.95 162.41 116.43 165.23 C 125.08 166.21 134.32 166.31 142.22 162.11 C 147.76 159.74 151.98 155.36 156.70 151.79 C 166.40 150.90 176.26 151.59 186.02 151.49 C 180.11 164.76 169.42 175.85 156.55 182.54 C 156.39 190.63 156.44 198.72 156.50 206.82 C 172.77 200.53 186.88 189.30 197.23 175.32 C 207.69 160.40 214.06 142.32 213.65 123.99 C 214.23 98.33 202.30 72.81 182.73 56.31 C 180.21 53.78 175.21 52.33 175.65 48.02 C 175.59 39.36 175.61 30.69 175.68 22.03 C 203.36 35.19 224.40 60.80 233.35 89.97 C 239.59 109.80 240.50 131.44 235.04 151.55 C 228.62 176.85 213.25 199.90 191.97 215.09 C 174.58 228.10 153.21 236.10 131.45 236.77 C 131.36 221.40 131.51 206.03 131.36 190.66 C 117.78 191.54 103.95 188.82 92.02 182.19 C 70.55 171.09 56.91 147.05 57.48 123.00 C 56.85 106.63 63.98 90.77 74.61 78.61 C 79.91 72.94 86.31 68.44 92.79 64.23 C 92.57 56.55 92.91 48.87 92.55 41.19 C 78.15 46.42 65.63 56.08 55.66 67.60 C 42.49 83.94 35.01 104.99 35.60 126.01 C 36.34 142.20 41.09 158.27 50.03 171.85 C 55.86 181.18 64.16 188.56 72.34 195.77 C 74.05 196.95 73.52 199.16 73.67 200.94 C 73.60 208.73 73.72 216.52 73.57 224.31 C 66.42 222.34 60.41 217.75 54.61 213.30 C 28.85 193.70 12.47 162.34 11.10 130.00 C 9.94 123.05 11.19 116.07 11.61 109.12 C 14.71 84.55 26.11 61.13 43.60 43.60 Z" />
<path fill="#03de92" opacity="1.00" d=" M 131.70 10.29 C 144.02 10.87 156.04 14.01 167.56 18.27 C 167.48 27.49 167.63 36.73 167.48 45.95 C 157.56 40.17 146.41 36.62 135.00 35.41 C 133.61 35.20 131.08 35.17 131.47 33.05 C 131.41 25.47 131.21 17.87 131.70 10.29 Z" />
<path fill="#03de92" opacity="1.00" d=" M 82.12 202.05 C 90.41 205.69 98.76 209.51 107.80 210.85 C 111.23 211.64 114.96 211.20 118.20 212.77 C 118.79 220.74 118.17 228.75 118.47 236.74 C 106.05 237.01 94.02 233.28 82.38 229.38 C 81.41 224.98 81.70 220.46 81.67 216.00 C 81.71 211.35 81.48 206.67 82.12 202.05 Z" />
</g>
</svg>

<?xml version="1.0" encoding="utf-8"?>
<!-- Generator: Adobe Illustrator 26.0.3, SVG Export Plug-In . SVG Version: 6.00 Build 0)  -->
<svg version="1.1" id="Layer_1" xmlns="http://www.w3.org/2000/svg" xmlns:xlink="http://www.w3.org/1999/xlink" x="0px" y="0px"
	 viewBox="0 0 250 250" style="enable-background:new 0 0 250 250;" xml:space="preserve">
<style type="text/css">
	.st0{fill:#03DE92;}
</style>
<g id="_x23_03de92ff">
	<path class="st0" d="M43.6,43.6c19.6-19.9,46.7-32.1,74.6-33.2c0.5,15.4,0.1,30.8,0.2,46.2c15.9-0.8,32.3,3.2,45.2,12.7
		c9.7,6.7,17.5,16.2,22.2,27c-8.6,0.1-17.3,0.1-25.9,0.1c-4.7,0.4-7.1-4.5-10.5-6.8c-11-8.3-26.3-10.2-39.2-5.5
		c-9.7,3.8-18.1,11.2-22.9,20.4c-5.9,10.8-6.4,24.3-1.4,35.5c5.4,12.6,17.1,22.5,30.6,25.3c8.7,1,17.9,1.1,25.8-3.1
		c5.5-2.4,9.8-6.8,14.5-10.3c9.7-0.9,19.6-0.2,29.3-0.3c-5.9,13.3-16.6,24.4-29.5,31c-0.2,8.1-0.1,16.2-0.1,24.3
		c16.3-6.3,30.4-17.5,40.7-31.5c10.5-14.9,16.8-33,16.4-51.3c0.6-25.7-11.3-51.2-30.9-67.7c-2.5-2.5-7.5-4-7.1-8.3
		c-0.1-8.7,0-17.3,0-26c27.7,13.2,48.7,38.8,57.7,67.9c6.2,19.8,7.1,41.5,1.7,61.6c-6.4,25.3-21.8,48.3-43.1,63.5
		c-17.4,13-38.8,21-60.5,21.7c-0.1-15.4,0.1-30.7-0.1-46.1c-13.6,0.9-27.4-1.8-39.3-8.5c-21.5-11.1-35.1-35.1-34.5-59.2
		c-0.6-16.4,6.5-32.2,17.1-44.4c5.3-5.7,11.7-10.2,18.2-14.4c-0.2-7.7,0.1-15.4-0.2-23c-14.4,5.2-26.9,14.9-36.9,26.4
		C42.5,83.9,35,105,35.6,126c0.7,16.2,5.5,32.3,14.4,45.8c5.8,9.3,14.1,16.7,22.3,23.9c1.7,1.2,1.2,3.4,1.3,5.2
		c-0.1,7.8,0.1,15.6-0.1,23.4c-7.2-2-13.2-6.6-19-11c-25.8-19.6-42.1-51-43.5-83.3c-1.2-6.9,0.1-13.9,0.5-20.9
		C14.7,84.6,26.1,61.1,43.6,43.6z"/>
	<path class="st0" d="M131.7,10.3c12.3,0.6,24.3,3.7,35.9,8c-0.1,9.2,0.1,18.5-0.1,27.7c-9.9-5.8-21.1-9.3-32.5-10.5
		c-1.4-0.2-3.9-0.2-3.5-2.4C131.4,25.5,131.2,17.9,131.7,10.3z"/>
	<path class="st0" d="M82.1,202.1c8.3,3.6,16.6,7.5,25.7,8.8c3.4,0.8,7.2,0.3,10.4,1.9c0.6,8,0,16,0.3,24
		c-12.4,0.3-24.5-3.5-36.1-7.4c-1-4.4-0.7-8.9-0.7-13.4C81.7,211.4,81.5,206.7,82.1,202.1z"/>
</g>
</svg>
